X: 28358
T: Muineira De Casu
R: jig
M: 6/8
K: Amajor
Acd|:"A" efe dcd|"A"edc Acd|"A"efe dcB|"A"c2A Acd|
"A"efe dcd|"A"edc Acd|"E" efe dcB|1 "A"A3 Acd:|2 "A"A3 agf||
|:"A"ecf ecd|"A"edc Acd|"A" efe "Bm7"dcd|"A"e3 agf|
"A" ecf ecd|"A"edc Acd|"E"efe dcB|1 "A"A3 agf:|2 "A"A3 ABc||
|:"D"d2 d dcd|"A"edc ABc|"E"d2 d dcB|"A"c2A "A"ABc|
"D"d2 d dcd|"A"edc Acd|"E"efe dcB|1 "A"A3 ABc:|2 "A"A6||

